svg/Outline/rhomb.svg

<svg viewBox="0 0 24 24" xmlns="http://www.w3.org/2000/svg" width="24" height="24"><path fill-rule="evenodd" d="M10.45 1.25a5 5 0 0 1 2.9-.06l.2.06c.85.28 1.62.9 2.79 2.03l1.32 1.3 1.75 1.76 1.3 1.32c1.14 1.17 1.76 1.94 2.04 2.8a5 5 0 0 1 0 3.09c-.37 1.14-1.36 2.13-3.34 4.1l-1.75 1.76-1.32 1.3c-1.17 1.14-1.94 1.76-2.8 2.04l-.18.06a5 5 0 0 1-2.9-.06l-.22-.07c-.77-.31-1.5-.93-2.58-1.96l-1.32-1.3-1.75-1.76-1.3-1.32c-1.04-1.07-1.66-1.8-1.97-2.58l-.07-.21a5 5 0 0 1-.06-2.9l.06-.2c.28-.85.9-1.62 2.03-2.79l1.3-1.32L6.35 4.6c1.86-1.86 2.85-2.84 3.9-3.27zM13 2.95a3.2 3.2 0 0 0-1.98 0c-.25.1-.58.27-1.13.74-.57.48-1.25 1.16-2.26 2.17L5.86 7.62A43 43 0 0 0 3.7 9.88c-.47.55-.65.88-.73 1.13l-.07.24A3 3 0 0 0 2.96 13l.08.2q.14.33.65.93c.48.57 1.16 1.25 2.17 2.26l1.76 1.76c1 1 1.69 1.7 2.26 2.17.55.47.88.65 1.13.73l.24.07a3 3 0 0 0 1.74-.07l.2-.08q.33-.14.93-.65c.57-.48 1.25-1.16 2.26-2.17l1.76-1.76c1-1 1.7-1.69 2.17-2.26.35-.41.54-.7.65-.92l.08-.21q.27-.86.07-1.74l-.07-.24a4 4 0 0 0-.73-1.13 43 43 0 0 0-2.17-2.26l-1.76-1.76a43 43 0 0 0-2.26-2.17A4 4 0 0 0 13 2.96" clip-rule="evenodd"/></svg>

<svg viewBox="0 0 24 24" xmlns="http://www.w3.org/2000/svg" width="24" height="24"><path fill-rule="evenodd" d="M10.45 1.25A5 5 0 0 1 13.35 1.19L13.55 1.25C14.4 1.53 15.17 2.15 16.34 3.28L20.71 7.66C21.85 8.83 22.47 9.6 22.75 10.46A5 5 0 0 1 22.75 13.55C22.38 14.69 21.39 15.68 19.41 17.65L16.34 20.71C15.17 21.85 14.4 22.47 13.54 22.75L13.36 22.81A5 5 0 0 1 10.46 22.75L10.24 22.68C9.47 22.37 8.74 21.75 7.66 20.72L3.29 16.34C2.25 15.27 1.63 14.54 1.32 13.76L1.25 13.55A5 5 0 0 1 1.19 10.65L1.25 10.45C1.53 9.6 2.15 8.83 3.28 7.66L6.35 4.6C8.21 2.74 9.2 1.76 10.25 1.33ZM13 2.95a3.2 3.2 0 0 0-1.98 0c-.25.1-.58.27-1.13.74-.57.48-1.25 1.16-2.26 2.17L5.86 7.62A43 43 0 0 0 3.7 9.88c-.47.55-.65.88-.73 1.13l-.07.24A3 3 0 0 0 2.96 13l.08.2q.14.33.65.93c.48.57 1.16 1.25 2.17 2.26l1.76 1.76c1 1 1.69 1.7 2.26 2.17.55.47.88.65 1.13.73l.24.07a3 3 0 0 0 1.74-.07l.2-.08q.33-.14.93-.65c.57-.48 1.25-1.16 2.26-2.17l1.76-1.76c1-1 1.7-1.69 2.17-2.26.35-.41.54-.7.65-.92l.08-.21q.27-.86.07-1.74l-.07-.24a4 4 0 0 0-.73-1.13 43 43 0 0 0-2.17-2.26l-1.76-1.76a43 43 0 0 0-2.26-2.17A4 4 0 0 0 13 2.96" clip-rule="evenodd"/></svg>
